components/Company/logos/logo-samsung.svg

<svg height="140" viewBox="0 0 400 140" width="400" xmlns="http://www.w3.org/2000/svg"><g transform="translate(33 44)"><path d="m277.592152 39.8733334-.663021-38.8733334h12.070869v49h-17.35553l-12.051367-40.20969697h-.263258l.672771 40.20969697h-12.002616v-49h18.116052l11.212842 38.8733334z"/><path d="m61.9813543 5.54538186-6.3861628 44.45461814h-12.5951915l8.6422965-49h20.7433757l8.6143278 49h-12.548577l-6.2090284-44.45461814z"/><path d="m117.642934 38.4602158 5.888889-37.4602158h19.439051l1.029126 49h-11.911183l-.314455-44.0529788h-.247753l-7.966199 44.0529788h-12.092233l-7.975728-44.0529788h-.257282l-.295397 44.0529788h-11.93977l1.0577132-49h19.4485798l5.87936 37.4602158z"/><path d="m22.4754544 36.3912638c.474084 1.1745382.3289562 2.6888185.106427 3.6012695-.4063578 1.6113494-1.4996537 3.2615268-4.711815 3.2615268-3.0380081 0-4.8762932-1.7472465-4.8762932-4.4069441v-4.6981519h-12.98409801l-.00967519 3.7565803c0 10.8232218 8.49481228 14.0944556 17.5991612 14.0944556 8.7560423 0 15.9640551-2.9994399 17.1057267-11.0950157.5901863-4.1933918.1451277-6.9404518-.0483758-7.9790929-2.041464-10.163151-20.41464-13.2014187-21.7788411-18.8799701-.2322044-.9706926-.1644781-2.0093336-.0483759-2.5626284.3386315-1.54340114 1.3932266-3.25182005 4.4215594-3.25182005 2.825154 0 4.498961 1.75695353 4.498961 4.40694415v2.99944h12.0649556v-3.4071308c0-10.58054886-9.4623309-12.2307262-16.3123617-12.2307262-8.61091453 0-15.64477391 2.8538361-16.9315735 10.7552735-.34830665 2.1840582-.39668257 4.1254434.10642704 6.5618817 2.11886547 9.9107709 19.30199376 12.7840209 21.79819146 19.0741086z"/><path d="m178.481077 36.4088253c.478736 1.1766923.322414 2.6671693.107471 3.5889118-.400575 1.627758-1.49483 3.2653215-4.718974 3.2653215-3.018971 0-4.865526-1.7650386-4.865526-4.392985l-.009771-4.7067698h-12.974737l-.01954 3.7458044c0 10.8255703 8.500016 14.0908918 17.59601 14.0908918 8.744269 0 15.954628-2.99076 17.097733-11.0903263.595979-4.2066753.175863-6.9424854-.03908-7.9720913-2.051728-10.1685837-20.409809-13.2083725-21.777627-18.8957193-.234483-.980577-.166093-2.0101829-.048851-2.5396945.351725-1.57872904 1.397129-3.25551577 4.42587-3.25551577 2.833339 0 4.484492 1.72581557 4.484492 4.39298507v3.0005657h12.095425v-3.412408c0-10.57062042-9.47703-12.2277956-16.335663-12.2277956-8.597718 0-15.641983 2.84367339-16.912101 10.7765416-.351725 2.176881-.390805 4.098812.117242 6.5502545 2.100578 9.9136338 19.286243 12.7965302 21.777627 19.0820292z"/><path d="m218.012995 43.1222588c3.355628 0 4.400031-2.3753153 4.632121-3.5926645.096704-.534446.125715-1.2470407.116044-1.890355v-36.6392393h12.233053v35.5109644c.029011.9105375-.058023 2.7810984-.106375 3.2462643-.860665 9.2439355-7.997418 12.2427713-16.884513 12.2427713-8.896765 0-16.043189-2.9988358-16.894184-12.2427713-.038681-.4651659-.125715-2.3456238-.106374-3.2462643v-35.5109644h12.223382v36.6293421c0 .6433146.019341 1.3658062.116045 1.890355.270771 1.2173492 1.286162 3.6025617 4.670801 3.6025617z"/><path d="m318.44432 42.2354402c3.359391 0 4.537965-2.2300936 4.751407-3.5253007.08352-.5550888.111359-1.2367767.102079-1.8502961v-7.0700784h-4.760685v-7.1090318h16.462879v13.0786712c-.009281.9154096-.027842 1.5873591-.167041 3.2136718-.770249 8.861944-8.10152 12.0269238-16.32368 12.0269238-8.240718 0-15.553428-3.1649798-16.342235-12.0269238-.129921-1.6263127-.148483-2.2982622-.167044-3.2136718l.009281-20.5090702c0-.8667176.102082-2.3956464.194883-3.213672 1.030088-9.10540384 8.064397-12.0366622 16.305115-12.0366622 8.231441 0 15.442071 2.91178155 16.295838 12.0366622.148482 1.5484056.102082 3.213672.102082 3.213672v1.6263127h-11.702195v-2.7267519c.009281.0097384-.018558-1.1588696-.148479-1.850296-.194883-1.0809624-1.08577-3.55451594-4.630766-3.55451594-3.387233 0-4.370921 2.33721594-4.621483 3.55451594-.139202.6427344-.194883 1.509452-.194883 2.2982624v22.2814589c-.009281.6135191.027839 1.2952071.120641 1.8502958.185602 1.2757305 1.354892 3.5058241 4.714286 3.5058241z"/></g></svg>

<?xml version="1.0" encoding="UTF-8"?>
<svg width="400px" height="140px" viewBox="0 0 400 140" version="1.1" xmlns="http://www.w3.org/2000/svg" xmlns:xlink="http://www.w3.org/1999/xlink">
    <title>Artboard</title>
    <g id="Artboard" stroke="none" stroke-width="1" fill="none" fill-rule="evenodd">
        <g id="samsung" transform="translate(33.000000, 44.000000)" fill="#000000" fill-rule="nonzero">
            <polygon id="Shape" points="277.592152 39.8733334 276.929131 1 289 1 289 50 271.64447 50 259.593103 9.79030303 259.329845 9.79030303 260.002616 50 248 50 248 1 266.116052 1 277.328894 39.8733334"></polygon>
            <polygon id="Shape" points="61.9813543 5.54538186 55.5951915 50 43 50 51.6422965 1 72.3856722 1 81 50 68.451423 50 62.2423946 5.54538186"></polygon>
            <polygon id="Shape" points="117.642934 38.4602158 123.531823 1 142.970874 1 144 50 132.088817 50 131.774362 5.9470212 131.526609 5.9470212 123.56041 50 111.468177 50 103.492449 5.9470212 103.235167 5.9470212 102.93977 50 91 50 92.0577132 1 111.506293 1 117.385653 38.4602158"></polygon>
            <path d="M22.4754544,36.3912638 C22.9495384,37.565802 22.8044106,39.0800823 22.5818814,39.9925333 C22.1755236,41.6038827 21.0822277,43.2540601 17.8700664,43.2540601 C14.8320583,43.2540601 12.9937732,41.5068136 12.9937732,38.847116 L12.9937732,34.1489641 L0.00967518505,34.1489641 L-2.84217094e-14,37.9055444 C-2.84217094e-14,48.7287662 8.49481228,52 17.5991612,52 C26.3552035,52 33.5632163,49.0005601 34.7048879,40.9049843 C35.2950742,36.7115925 34.8500156,33.9645325 34.6565121,32.9258914 C32.6150481,22.7627404 14.2418721,19.7244727 12.877671,14.0459213 C12.6454666,13.0752287 12.7131929,12.0365877 12.8292951,11.4832929 C13.1679266,9.93989176 14.2225217,8.23147285 17.2508545,8.23147285 C20.0760085,8.23147285 21.7498155,9.98842638 21.7498155,12.638417 C21.7498155,13.5314542 21.7498155,15.637857 21.7498155,15.637857 L33.8147711,15.637857 L33.8147711,12.2307262 C33.8147711,1.65017734 24.3524402,0 17.5024094,0 C8.89149487,0 1.85763549,2.8538361 0.570835904,10.7552735 C0.222529251,12.9393317 0.174153327,14.8807169 0.677262937,17.3171552 C2.79612841,27.2279261 19.9792567,30.1011761 22.4754544,36.3912638 Z" id="Shape"></path>
            <path d="M178.481077,36.4088253 C178.959813,37.5855176 178.803491,39.0759946 178.588548,39.9977371 C178.187973,41.6254951 177.093718,43.2630586 173.869574,43.2630586 C170.850603,43.2630586 169.004048,41.49802 169.004048,38.8700736 L168.994277,34.1633038 L156.01954,34.1633038 L156,37.9091082 C156,48.7346785 164.500016,52 173.59601,52 C182.340279,52 189.550638,49.00924 190.693743,40.9096737 C191.289722,36.7029984 190.869606,33.9671883 190.654663,32.9375824 C188.602935,22.7689987 170.244854,19.7292099 168.877036,14.0418631 C168.642553,13.0612861 168.710943,12.0316802 168.828185,11.5021686 C169.17991,9.92343956 170.225314,8.24665283 173.254055,8.24665283 C176.087394,8.24665283 177.738547,9.9724684 177.738547,12.6396379 C177.738547,13.531963 177.738547,15.6402036 177.738547,15.6402036 L189.833972,15.6402036 L189.833972,12.2277956 C189.833972,1.65717518 180.356942,0 173.498309,0 C164.900591,0 157.856326,2.84367339 156.586208,10.7765416 C156.234483,12.9534226 156.195403,14.8753536 156.70345,17.3267961 C158.804028,27.2404299 175.989693,30.1233263 178.481077,36.4088253 Z" id="Shape"></path>
            <path d="M218.012995,43.1222588 C221.368623,43.1222588 222.413026,40.7469435 222.645116,39.5295943 C222.74182,38.9951483 222.770831,38.2825536 222.76116,37.6392393 L222.76116,1 L234.994213,1 L234.994213,36.5109644 C235.023224,37.4215019 234.93619,39.2920628 234.887838,39.7572287 C234.027173,49.0011642 226.89042,52 218.003325,52 C209.10656,52 201.960136,49.0011642 201.109141,39.7572287 C201.07046,39.2920628 200.983426,37.4116049 201.002767,36.5109644 L201.002767,1 L213.226149,1 L213.226149,37.6293421 C213.226149,38.2726567 213.24549,38.9951483 213.342194,39.5196971 C213.612965,40.7370463 214.628356,43.1222588 218.012995,43.1222588 Z" id="Shape"></path>
            <path d="M318.44432,42.2354402 C321.803711,42.2354402 322.982285,40.0053466 323.195727,38.7101395 C323.279247,38.1550507 323.307086,37.4733628 323.297806,36.8598434 L323.297806,29.789765 L318.537121,29.789765 L318.537121,22.6807332 L335,22.6807332 L335,35.7594044 C334.990719,36.674814 334.972158,37.3467635 334.832959,38.9730762 C334.06271,47.8350202 326.731439,51 318.509279,51 C310.268561,51 302.955851,47.8350202 302.167044,38.9730762 C302.037123,37.3467635 302.018561,36.674814 302,35.7594044 L302.009281,15.2503342 C302.009281,14.3836166 302.111363,12.8546878 302.204164,12.0366622 C303.234252,2.93125836 310.268561,0 318.509279,0 C326.74072,0 333.95135,2.91178155 334.805117,12.0366622 C334.953599,13.5850678 334.907199,15.2503342 334.907199,15.2503342 L334.907199,16.8766469 L323.205004,16.8766469 L323.205004,14.149895 C323.214285,14.1596334 323.186446,12.9910254 323.056525,12.299599 C322.861642,11.2186366 321.970755,8.74508306 318.425759,8.74508306 C315.038526,8.74508306 314.054838,11.082299 313.804276,12.299599 C313.665074,12.9423334 313.609393,13.809051 313.609393,14.5978614 L313.609393,36.8793203 C313.600112,37.4928394 313.637232,38.1745274 313.730034,38.7296161 C313.915636,40.0053466 315.084926,42.2354402 318.44432,42.2354402 Z" id="Shape"></path>
        </g>
    </g>
</svg>
